X: 200
T: Fred Holland's Varsoviana
B: australian dance tunes
M:3/4
L:1/8
R: Varsoviana
Q: 1/4=100
K:D
V:1 
D>E|F2 E2 D2|B4 A>F|D2 F2 A2|E4 D>E|!
F2 E2 D2|B4 c>B|A2 c2 e2|d4:|!
D>E|F>G F2 E>D|B>c B2 A>F|D2 F2 A2|E4 D>E|!
F>G F2 E>D|B>c B2 c>B|A2 c2 e2| d4:|
% abcbook-tune_id 62a07850389089c3438986d0


% abcbook-boost 0
% abcbook-tablature 
% abcbook-transpose 
% abcbook-lastupdated 1654683750302
% abcbook-soundfonts 
% abcbook-repeats 1


